packages/nodes-base/nodes/Brevo/brevo.svg

<svg width="48" height="48" viewBox="0 0 48 48" fill="none" xmlns="http://www.w3.org/2000/svg">
    <circle cx="24" cy="24" r="24" fill="#0B996E"/>
    <path d="M31.5036 21.8092C32.9875 20.3562 33.6829 18.677 33.6829 16.6345C33.6829 12.4146 30.5772 9.59998 25.8963 9.59998H14.4V39.6H23.6705C30.717 39.6 36 35.2887 36 29.5702C36 26.438 34.3782 23.6253 31.5036 21.8092ZM18.572 13.5024H25.4321C27.7492 13.5024 29.2797 14.8184 29.2797 16.8152C29.2797 19.084 27.287 20.8089 23.2082 22.1249C20.4269 22.9863 19.176 23.7128 18.7118 24.5762L18.572 24.5775V13.5024ZM23.2995 35.6976H18.572V31.0688C18.572 29.0263 20.3336 27.0295 22.7906 26.2573C24.9698 25.5309 26.7761 24.8044 28.3067 24.0342C30.346 25.2152 31.5969 27.2558 31.5969 29.3895C31.5969 33.0199 28.0736 35.6976 23.2995 35.6976Z" fill="white"/>
</svg>

<svg xmlns="http://www.w3.org/2000/svg" width="48" height="48" fill="none"><circle cx="24" cy="24" r="24" fill="#0B996E"/><path fill="#fff" d="M31.504 21.81c1.483-1.454 2.179-3.133 2.179-5.175 0-4.22-3.106-7.035-7.787-7.035H14.4v30h9.27C30.718 39.6 36 35.289 36 29.57c0-3.132-1.622-5.945-4.496-7.76m-12.932-8.308h6.86c2.317 0 3.848 1.316 3.848 3.313 0 2.269-1.993 3.994-6.072 5.31-2.781.861-4.032 1.588-4.496 2.451l-.14.002zm4.727 22.196h-4.727v-4.63c0-2.042 1.762-4.039 4.219-4.81 2.179-.727 3.985-1.454 5.516-2.224 2.039 1.181 3.29 3.222 3.29 5.356 0 3.63-3.523 6.308-8.298 6.308"/></svg>
